_includes/icons/ios-ok.svg

<svg fill="#666" height="50" viewBox="0 0 50 50" width="50" xmlns="http://www.w3.org/2000/svg"><path d="m25 3c-12.13842 0-22 9.86158-22 22s9.86158 22 22 22 22-9.86158 22-22-9.86158-22-22-22zm0 2c11.05754 0 20 8.94246 20 20s-8.94246 20-20 20-20-8.94246-20-20 8.94246-20 20-20zm9.988281 9.988281a1.0001 1.0001 0 0 0 -.816406.451172l-10.201172 15.037109-7.291015-6.765624a1.0001 1.0001 0 1 0 -1.359376 1.466796l8.996094 8.347657 11.511719-16.964844a1.0001 1.0001 0 0 0 -.839844-1.572266z"/></svg>

<svg xmlns="http://www.w3.org/2000/svg" viewBox="0 0 50 50" width="50" height="50" fill="#666"><path style="line-height:normal;text-indent:0;text-align:start;text-decoration-line:none;text-decoration-style:solid;text-decoration-color:#000;text-transform:none;block-progression:tb;isolation:auto;mix-blend-mode:normal" d="M 25 3 C 12.86158 3 3 12.86158 3 25 C 3 37.13842 12.86158 47 25 47 C 37.13842 47 47 37.13842 47 25 C 47 12.86158 37.13842 3 25 3 z M 25 5 C 36.05754 5 45 13.94246 45 25 C 45 36.05754 36.05754 45 25 45 C 13.94246 45 5 36.05754 5 25 C 5 13.94246 13.94246 5 25 5 z M 34.988281 14.988281 A 1.0001 1.0001 0 0 0 34.171875 15.439453 L 23.970703 30.476562 L 16.679688 23.710938 A 1.0001 1.0001 0 1 0 15.320312 25.177734 L 24.316406 33.525391 L 35.828125 16.560547 A 1.0001 1.0001 0 0 0 34.988281 14.988281 z"/></svg>
